assets/img/usageIcon1.svg

<svg width="172" height="128" viewBox="0 0 172 128" fill="none" xmlns="http://www.w3.org/2000/svg">
<path fill-rule="evenodd" clip-rule="evenodd" d="M137.986 60.0031H168.543C170.446 60.0031 172 61.557 172 63.461V85.0487C172 86.9526 170.446 88.5066 168.543 88.5066H137.986C136.083 88.5066 134.529 86.9526 134.529 85.0487V63.447C134.529 61.557 136.083 60.0031 137.986 60.0031ZM18.7425 49.6012C29.1006 49.6012 37.485 58.0011 37.485 68.3469C37.485 78.6928 29.0866 87.0926 18.7425 87.0926C8.39844 87.0926 0 78.7068 0 68.3609C0 58.0151 8.39844 49.6012 18.7425 49.6012ZM16.153 58.9251H18.4486C18.8685 58.9251 19.2184 59.2751 19.2184 59.6951V68.5289H27.2809C27.7008 68.5289 28.0508 68.8789 28.0508 69.2989V71.5949C28.0508 72.0149 27.7008 72.3649 27.2809 72.3649H15.3971V59.7091C15.3831 59.2611 15.7331 58.9251 16.153 58.9251ZM18.7425 53.8712C26.749 53.8712 33.2298 60.3531 33.2298 68.3609C33.2298 76.3688 26.749 82.8507 18.7425 82.8507C10.736 82.8507 4.25521 76.3688 4.25521 68.3609C4.25521 60.3531 10.75 53.8712 18.7425 53.8712ZM73.5003 108.876C78.2314 122.82 98.0378 123.338 102.489 108.876C107.738 113.58 123.233 114.546 129 117.766C130.82 118.774 132.471 120.09 133.801 121.826C134.683 123.002 135.873 125.172 136.769 127.594H39.2067C40.1025 125.172 41.2923 123.002 42.1742 121.826C43.5039 120.076 45.1416 118.788 46.9753 117.766C52.7562 114.532 68.2513 113.58 73.5003 108.876ZM93.3626 21.9097C94.1885 21.7697 94.2865 21.7837 94.9723 21.9517V7.48988L79.2953 11.7038V29.4415C79.3092 29.5395 79.3092 29.6515 79.3092 29.7495C79.3092 32.2695 75.9779 34.7755 72.7165 35.3354C69.4551 35.8954 66.8096 34.3135 66.8096 31.7935C66.8096 29.2735 69.4551 26.7676 72.7165 26.2076C73.9482 25.9976 75.082 26.0956 76.0339 26.4176V5.05392H76.1738L98.2337 0V24.2896C98.2757 24.4856 98.2897 24.6676 98.2897 24.8636C98.2897 26.9636 96.0781 29.0635 93.3626 29.5255C90.6331 30.0015 88.4355 28.6716 88.4355 26.5716C88.4355 24.4716 90.6331 22.3717 93.3626 21.9097ZM69.861 79.9808C68.8672 80.0228 68.1253 80.2327 67.6074 80.5687C67.3135 80.7787 67.1035 81.0167 66.9495 81.3247C66.7956 81.6607 66.7116 82.0667 66.7256 82.5287C66.7676 83.8867 67.4814 85.6787 68.8532 87.7366L68.8672 87.7646L73.3464 94.8905C75.138 97.7465 77.0277 100.658 79.3792 102.8C81.6188 104.858 84.3623 106.244 87.9736 106.258C91.8789 106.272 94.7484 104.83 97.0719 102.646C99.4935 100.392 101.383 97.2845 103.273 94.2045L108.312 85.8887C109.25 83.7467 109.6 82.3047 109.39 81.4507C109.264 80.9467 108.704 80.6947 107.766 80.6527C107.556 80.6387 107.36 80.6387 107.164 80.6527C106.926 80.6527 106.702 80.6667 106.45 80.6947C106.324 80.7087 106.184 80.6947 106.058 80.6667C105.61 80.6947 105.148 80.6667 104.673 80.5967L106.38 73.6668C93.5586 75.6968 83.9564 66.163 70.3929 71.7489L71.3587 80.0508C70.8688 80.0648 70.3369 80.0508 69.861 79.9808ZM109.502 78.3708C110.747 78.7488 111.545 79.5468 111.867 80.8207C112.231 82.2207 111.839 84.2227 110.635 86.9526C110.607 86.9946 110.593 87.0506 110.565 87.0926L105.456 95.5065C103.483 98.7545 101.481 102.002 98.8216 104.494C96.0501 107.07 92.6488 108.792 88.0016 108.792C83.6624 108.778 80.387 107.126 77.6995 104.662C75.11 102.282 73.1224 99.2304 71.2327 96.2345L66.7536 89.1086C65.1159 86.6587 64.262 84.4327 64.2201 82.5987C64.1921 81.7307 64.332 80.9467 64.654 80.2608C64.9899 79.5328 65.5078 78.9448 66.1937 78.4688C66.5156 78.2448 66.8796 78.0628 67.2855 77.9228C66.9915 74.0588 66.8796 69.9009 67.0615 65.827C67.1595 64.861 67.3415 63.881 67.6074 62.929C68.7552 58.8271 71.6247 56.9651 75.18 54.6971C77.1396 53.4512 79.2953 52.5132 81.5208 51.8692C81.9268 51.7572 87.4977 38.5694 105.386 57.9171C107.878 60.6191 109.432 62.761 109.782 67.4789L109.502 78.3708ZM22.6618 123.408C23.4036 125.046 22.6618 126.978 21.0241 127.706C19.3864 128.448 17.4548 127.706 16.7269 126.068C14.9072 121.994 13.4095 117.752 12.3177 113.384C11.2399 109.1 10.526 104.648 10.2041 100.098C10.1481 99.3005 10.1061 98.3765 10.0641 97.3265C10.0221 96.2065 10.0081 95.2825 10.0081 94.5545C10.0081 92.7626 11.4779 91.2926 13.2695 91.2926C15.0612 91.2926 16.5309 92.7626 16.5309 94.5545C16.5309 95.6185 16.5449 96.4585 16.5589 97.0885C16.5869 97.8165 16.6289 98.6705 16.6989 99.6225C16.9928 103.78 17.6507 107.854 18.6445 111.774C19.6523 115.82 20.9961 119.712 22.6618 123.408ZM37.0791 44.7993C35.8193 46.0733 33.7477 46.0733 32.474 44.8133C31.2002 43.5533 31.2002 41.4814 32.46 40.2074C35.5954 37.0714 39.6966 33.5995 44.0638 30.5755C47.8991 27.9296 51.9583 25.6056 55.7796 24.1216C57.4593 23.4636 59.349 24.3036 59.9788 25.9696C60.6367 27.6496 59.7969 29.5395 58.1312 30.1695C54.8138 31.4575 51.2165 33.5155 47.7591 35.9094C43.7419 38.7094 39.9486 41.9153 37.0791 44.7993ZM115.94 30.3095C114.303 29.5675 113.561 27.6496 114.303 26.0116C115.045 24.3736 116.962 23.6316 118.6 24.3736C124.563 27.0756 130.148 30.5195 135.187 34.5795C140.268 38.6674 144.817 43.3993 148.722 48.6492C149.8 50.0912 149.492 52.1212 148.036 53.1992C146.581 54.2772 144.565 53.9692 143.487 52.5132C139.918 47.7113 135.747 43.3993 131.1 39.6474C126.508 35.9234 121.413 32.7875 115.94 30.3095ZM157.205 99.8604C157.331 98.0685 158.884 96.7105 160.676 96.8365C162.468 96.9625 163.826 98.5165 163.7 100.308C163.364 104.76 162.65 109.086 161.614 113.272C160.536 117.556 159.108 121.7 157.359 125.662C156.631 127.314 154.713 128.056 153.062 127.328C151.41 126.6 150.668 124.682 151.396 123.03C153.006 119.39 154.321 115.596 155.287 111.69C156.267 107.882 156.911 103.92 157.205 99.8604ZM151.172 67.8149L159.57 73.6668C159.71 73.7508 159.836 73.8768 159.934 74.0168C160.326 74.5908 160.186 75.3608 159.612 75.7668L151.256 81.5487C151.046 81.7307 150.766 81.8287 150.458 81.8287C149.758 81.8287 149.198 81.2687 149.198 80.5687V68.8369C149.198 68.5849 149.268 68.3329 149.422 68.1229C149.828 67.5489 150.612 67.4089 151.172 67.8149Z" fill="#65CB88"/>
</svg>

<svg width="172" height="128" fill="none" xmlns="http://www.w3.org/2000/svg"><path fill-rule="evenodd" clip-rule="evenodd" d="M137.986 60.003h30.557A3.465 3.465 0 0 1 172 63.461v21.588a3.465 3.465 0 0 1-3.457 3.458h-30.557a3.465 3.465 0 0 1-3.457-3.458V63.447c0-1.89 1.554-3.444 3.457-3.444ZM18.743 49.601c10.358 0 18.742 8.4 18.742 18.746 0 10.346-8.398 18.746-18.742 18.746C8.397 87.093 0 78.707 0 68.36S8.398 49.6 18.742 49.6Zm-2.59 9.324h2.296c.42 0 .77.35.77.77v8.834h8.062c.42 0 .77.35.77.77v2.296c0 .42-.35.77-.77.77H15.397V59.709a.751.751 0 0 1 .756-.784Zm2.59-5.054c8.006 0 14.487 6.482 14.487 14.49s-6.481 14.49-14.487 14.49c-8.007 0-14.488-6.482-14.488-14.49s6.495-14.49 14.488-14.49ZM73.5 108.876c4.731 13.944 24.538 14.462 28.989 0 5.249 4.704 20.744 5.67 26.511 8.89 1.82 1.008 3.471 2.324 4.801 4.06.882 1.176 2.072 3.346 2.968 5.768H39.207c.895-2.422 2.085-4.592 2.967-5.768 1.33-1.75 2.968-3.038 4.801-4.06 5.781-3.234 21.276-4.186 26.525-8.89ZM93.363 21.91c.826-.14.924-.126 1.61.042V7.49l-15.678 4.214v17.738c.014.098.014.21.014.308 0 2.52-3.331 5.026-6.593 5.585-3.26.56-5.906-1.022-5.906-3.541 0-2.52 2.645-5.026 5.906-5.586 1.232-.21 2.366-.112 3.318.21V5.054h.14L98.234 0v24.29c.042.196.056.378.056.574 0 2.1-2.212 4.2-4.927 4.662-2.73.476-4.927-.854-4.927-2.954s2.197-4.2 4.927-4.662ZM69.86 79.98c-.994.043-1.736.253-2.254.589-.293.21-.504.448-.657.756a2.684 2.684 0 0 0-.224 1.204c.042 1.358.755 3.15 2.127 5.208l.014.028 4.48 7.126c1.791 2.855 3.68 5.767 6.032 7.909 2.24 2.058 4.983 3.444 8.595 3.458 3.905.014 6.774-1.428 9.098-3.612 2.421-2.254 4.311-5.362 6.201-8.442l5.039-8.315c.938-2.142 1.288-3.584 1.078-4.438-.126-.504-.686-.756-1.624-.798a4.318 4.318 0 0 0-.602 0c-.238 0-.462.014-.714.042-.126.014-.266 0-.392-.028-.448.028-.91 0-1.385-.07l1.707-6.93c-12.821 2.03-22.424-7.504-35.987-1.918l.966 8.302c-.49.014-1.022 0-1.498-.07Zm39.641-1.61c1.245.379 2.043 1.177 2.365 2.45.364 1.4-.028 3.403-1.232 6.133-.028.042-.042.098-.07.14l-5.109 8.413c-1.973 3.248-3.975 6.496-6.634 8.988-2.772 2.576-6.173 4.298-10.82 4.298-4.34-.014-7.615-1.666-10.302-4.13-2.59-2.38-4.578-5.432-6.467-8.428l-4.48-7.125c-1.637-2.45-2.491-4.676-2.533-6.51-.028-.868.112-1.652.434-2.338.336-.728.854-1.316 1.54-1.792a4.426 4.426 0 0 1 1.091-.546c-.293-3.864-.405-8.022-.224-12.096.098-.966.28-1.946.546-2.898 1.148-4.102 4.018-5.964 7.573-8.232 1.96-1.246 4.115-2.184 6.34-2.828.407-.112 5.978-13.3 23.866 6.048 2.492 2.702 4.046 4.844 4.396 9.562l-.28 10.892Zm-86.84 45.038c.742 1.638 0 3.57-1.638 4.298-1.638.742-3.57 0-4.297-1.638-1.82-4.074-3.318-8.316-4.41-12.684a76.672 76.672 0 0 1-2.113-13.286 95.627 95.627 0 0 1-.14-2.772 74.358 74.358 0 0 1-.056-2.771 3.274 3.274 0 0 1 3.262-3.262 3.274 3.274 0 0 1 3.26 3.261c0 1.064.015 1.904.029 2.534.028.729.07 1.583.14 2.535a69.414 69.414 0 0 0 1.945 12.151 68.734 68.734 0 0 0 4.018 11.634Zm14.417-78.609c-1.26 1.274-3.331 1.274-4.605.014-1.274-1.26-1.274-3.332-.014-4.606 3.135-3.136 7.237-6.608 11.604-9.631 3.835-2.646 7.894-4.97 11.716-6.454 1.68-.658 3.569.182 4.199 1.848.658 1.68-.182 3.57-1.848 4.2-3.317 1.287-6.914 3.346-10.372 5.74-4.017 2.8-7.81 6.005-10.68 8.89Zm78.861-14.49c-1.637-.742-2.379-2.66-1.637-4.297.742-1.638 2.659-2.38 4.297-1.638a77.36 77.36 0 0 1 16.587 10.206 77.166 77.166 0 0 1 13.535 14.07 3.237 3.237 0 0 1-.686 4.55 3.234 3.234 0 0 1-4.549-.687A70.936 70.936 0 0 0 131.1 39.647a69.673 69.673 0 0 0-15.16-9.337Zm41.265 69.551a3.257 3.257 0 0 1 3.471-3.023 3.258 3.258 0 0 1 3.024 3.471 78.5 78.5 0 0 1-2.086 12.964 77.525 77.525 0 0 1-4.255 12.39 3.252 3.252 0 0 1-4.297 1.666 3.253 3.253 0 0 1-1.666-4.298 69.021 69.021 0 0 0 3.891-11.34 66.858 66.858 0 0 0 1.918-11.83Zm-6.033-32.045 8.398 5.852a1.26 1.26 0 0 1 .042 2.1l-8.356 5.782c-.21.182-.49.28-.798.28-.7 0-1.26-.56-1.26-1.26V68.837c0-.252.07-.504.224-.714a1.247 1.247 0 0 1 1.75-.308Z" fill="#65CB88"/></svg>
